img/phone.svg

<svg fill="none" height="50" viewBox="0 0 50 50" width="50" xmlns="http://www.w3.org/2000/svg"><rect height="49" rx="24.5" stroke="#e56f1e" width="49" x=".5" y=".5"/><path clip-rule="evenodd" d="m16.8318 13.022c-.168-.0335-.3697-.0335-.5042.0334-1.8151.7021-2.9579 3.2765-3.2268 5.0485-.8404 5.7506 3.731 10.7322 7.9327 14.0087 3.731 2.9088 10.8906 7.6898 15.1259 3.0759.5378-.5683 1.1765-1.4042 1.1429-2.24-.1009-1.4042-1.4118-2.4073-2.4202-3.1762-.7731-.5684-2.3865-2.1398-3.3949-2.1064-.9076.0335-1.479.9696-2.0504 1.538l-1.0084 1.003c-.1681.1672-2.3193-1.237-2.5546-1.4042-.874-.5684-1.7143-1.2036-2.4538-1.9057s-1.4117-1.4711-1.9832-2.2735c-.168-.2341-1.5462-2.2735-1.4117-2.4407 0 0 1.1764-1.2705 1.5126-1.772.7058-1.0699 1.2437-1.9057.4369-3.1762-.3025-.4681-.6722-.8358-1.0756-1.237-.7059-.6687-1.4117-1.3708-2.2185-1.9392-.4369-.3343-1.1764-.9361-1.8487-1.0364z" fill="#e56f1e" fill-rule="evenodd"/></svg>

<svg width="50" height="50" viewBox="0 0 50 50" fill="none" xmlns="http://www.w3.org/2000/svg">
<rect x="0.5" y="0.5" width="49" height="49" rx="24.5" stroke="#E56F1E"/>
<path fill-rule="evenodd" clip-rule="evenodd" d="M16.8318 13.022C16.6638 12.9885 16.4621 12.9885 16.3276 13.0554C14.5125 13.7575 13.3697 16.3319 13.1008 18.1039C12.2604 23.8545 16.8318 28.8361 21.0335 32.1126C24.7645 35.0214 31.9241 39.8024 36.1594 35.1885C36.6972 34.6202 37.3359 33.7843 37.3023 32.9485C37.2014 31.5443 35.8905 30.5412 34.8821 29.7723C34.109 29.2039 32.4956 27.6325 31.4872 27.6659C30.5796 27.6994 30.0082 28.6355 29.4368 29.2039L28.4284 30.2069C28.2603 30.3741 26.1091 28.9699 25.8738 28.8027C24.9998 28.2343 24.1595 27.5991 23.42 26.897C22.6805 26.1949 22.0083 25.4259 21.4368 24.6235C21.2688 24.3894 19.8906 22.35 20.0251 22.1828C20.0251 22.1828 21.2015 20.9123 21.5377 20.4108C22.2435 19.3409 22.7814 18.5051 21.9746 17.2346C21.6721 16.7665 21.3024 16.3988 20.899 15.9976C20.1931 15.3289 19.4873 14.6268 18.6805 14.0584C18.2436 13.7241 17.5041 13.1223 16.8318 13.022Z" fill="#E56F1E"/>
</svg>
